public/assets/images/case/svg/avangard.svg

<svg width="69" height="40" viewBox="0 0 69 40" fill="none" xmlns="http://www.w3.org/2000/svg">
<g clip-path="url(#clip0_2520_21966)">
<path d="M70.4865 18.2255C70.3009 15.5438 68.3583 12.8325 64.219 9.49363V9.49234C64.4137 9.04561 64.5129 7.21221 62.4504 6.11218C57.2554 3.35175 46.1048 0.444148 37.7258 0C37.8083 0.225938 38.0042 0.856015 38.1434 1.32598C28.902 0.945281 19.6454 1.20499 10.4397 2.10324C7.91568 2.35243 0.0703125 3.43955 0.0703125 3.43955L17.7965 11.0533C15.9054 11.482 13.9847 11.9442 12.0524 12.4477C10.0801 12.9642 4.23792 14.9615 4.23792 14.9615L11.324 16.5135C14.8522 17.283 24.8014 19.4185 29.0489 20.4023C28.4869 22.1453 24.8298 34.2212 24.8298 34.2212C24.8298 34.2212 29.5658 29.191 31.0367 27.7863C32.9059 25.9981 33.5246 25.3925 34.0854 24.929C33.8701 27.5009 33.3932 33.0205 33.2707 34.38C33.1727 35.4671 33.3841 36.5943 34.0106 37.2528C34.3518 37.5685 34.7576 37.806 35.1997 37.9487C35.6418 38.0914 36.1097 38.1359 36.5707 38.0791C37.4457 37.9025 38.2591 37.4991 38.9298 36.9093C41.7838 34.5414 48.9331 28.1387 54.9789 22.2486C55.3192 22.197 55.6582 22.1492 55.9998 22.1131C60.1507 21.6521 64.1688 22.3158 64.8559 24.3996C65.3045 25.7682 64.8429 26.6113 64.424 27.9218C65.1356 27.2401 66.9738 25.541 67.6918 24.6372C68.861 23.1679 70.6696 20.8865 70.4853 18.2255" fill="black"/>
<path d="M38.0686 7.59624L38.1498 7.58721C37.9049 7.10949 37.6986 6.61628 37.513 6.25735C40.9136 5.84679 48.7873 6.25735 51.9301 8.27796C55.0729 10.2986 57.9282 10.9919 60.0771 10.509C59.8421 10.9751 59.5149 11.3884 59.1154 11.724C58.314 11.8994 57.4871 11.9248 56.6765 11.7989C55.787 13.2746 53.602 13.0926 50.1537 14.8408C45.3174 17.289 40.6675 20.0905 36.2419 23.2227C36.1027 24.9399 35.805 28.2736 35.765 28.7939L42.5997 26.2956L41.2204 25.1168L47.0548 23.7701C47.9997 22.2337 55.2302 15.1932 56.3749 14.3385C56.7586 14.2517 57.1468 14.1857 57.5376 14.1409C59.0494 12.7591 60.7248 11.5683 62.5264 10.5955C62.5575 10.4978 62.5825 10.3982 62.6012 10.2973C62.7043 9.6672 62.6592 8.75307 61.838 8.31927C47.9314 1.00636 22.2103 3.36782 8.35779 4.49755L21.4214 10.2689C27.6734 8.98033 33.4537 8.10751 38.0686 7.59624" fill="#BFBD9C"/>
<path d="M41.2201 25.1173L42.6007 26.2961L35.7635 28.7944C35.7635 28.7944 35.3974 33.2488 35.3007 34.2972C35.1718 35.7213 36.3732 36.1603 37.5127 35.2165C40.0522 33.1081 45.9627 27.9397 51.4735 22.752L41.2201 25.1173Z" fill="#6F7757"/>
<path d="M53.7711 12.6823C51.1774 13.098 49.927 11.2608 49.6976 9.32149C48.7656 9.16655 47.8374 9.07618 47.0008 9C46.9583 11.4325 48.5941 14.0818 52.5336 13.4841C53.9954 13.2646 54.6966 12.7636 55.0176 12.2485C54.6366 12.478 54.2121 12.6257 53.7711 12.6823" fill="#FEFEFE"/>
<path d="M59.8895 14.3482C60.1629 13.793 60.6344 13.3608 61.2108 13.1371C62.1012 13.5044 62.892 14.0778 63.5183 14.8104L59.8895 14.3482ZM62.527 10.5962C57.1051 13.4238 52.7428 19.1538 51.2333 21.2389C55.7077 19.7787 64.9504 18.9833 66.4445 23.5397C68.8963 20.3222 71.3688 17.5257 62.5257 10.5962L62.527 10.5962Z" fill="#F2F2D9"/>
<path d="M30.2946 14.1852L41.6192 12.9174L35.5012 17.4518L35.6327 15.6016L30.2946 14.1852ZM47.4652 14.069C45.6076 13.0193 45.0133 10.9678 45.2157 9.04785H45.2118C42.2444 9.27638 26.2816 10.5456 11.8503 14.406C16.5104 15.2233 31.6442 18.7752 31.6442 18.7752C31.6442 18.7752 29.9878 23.7253 29.1344 26.8757C34.6568 21.9875 38.3075 19.1096 47.4652 14.069Z" fill="#FF0000"/>
</g>
<defs>
<clipPath id="clip0_2520_21966">
<rect width="69" height="40" fill="white"/>
</clipPath>
</defs>
</svg>

<svg width="218" height="40" fill="none" xmlns="http://www.w3.org/2000/svg"><path d="M144.04 25.365 146.427 13h11.581l-1.809 2.778h-6.652l-1.464 7.577a2.479 2.479 0 0 1-2.431 2.01h-1.612Zm-61.098-4.53 3.008-4.85h.414l1.218 4.85h-4.64ZM89.205 13H81.44a5.04 5.04 0 0 0-.073.207c.782.297 1.914.912 1.325 1.886L76 25.365h2.755a2.475 2.475 0 0 0 2.104-1.172l.52-.837h6.836l.506 2.01h3.855L89.206 13Zm26.849 7.836 3.01-4.85h.414l1.218 4.85h-4.642ZM122.319 13h-7.73c-.026.068-.051.14-.074.207.726.275 1.747.825 1.427 1.677l-6.828 10.481h2.754a2.47 2.47 0 0 0 2.103-1.17l.521-.84h6.837l.506 2.01h3.854L122.319 13Zm38.786 7.836 3.01-4.85h.413l1.219 4.85h-4.642ZM167.369 13h-7.758c-.025.068-.051.14-.073.207.768.29 1.868.89 1.353 1.832l-6.727 10.326h2.754a2.47 2.47 0 0 0 2.104-1.172l.52-.837h6.838l.504 2.01h3.857L167.369 13ZM198.85 22.845h-6.479l2.956-7.325h4.936l-1.413 7.325Zm3.654 0L204.406 13h-14.125c-.026.067-.051.14-.073.207.763.287 1.674.813 1.348 1.811l-3.158 7.827h-2.29l-.875 4.53h1.612a2.473 2.473 0 0 0 2.431-2.009h11.582l-.387 2.01h3.655l.874-4.53h-2.496v-.001ZM105.22 17.47a1.634 1.634 0 0 1-1.297.54h-4.916l.496-2.539h4.826c.848 0 1.279.336 1.279.998-.004.37-.142.725-.387 1h-.001Zm-.495 4.835a1.857 1.857 0 0 1-1.496.617H98.06l.55-2.826h5.078c.348 0 1.405 0 1.405 1.074.022.412-.109.816-.368 1.136Zm2.837-3.491-.235-.067.044-.173.227-.056c.502-.135.956-.409 1.31-.79a3.045 3.045 0 0 0 .829-2.188c0-2.1-1.989-2.539-3.659-2.539H94.663l-.073.207c.781.293 1.534.772 1.328 1.875l-1.986 10.282h10.254c1.82 0 3.119-.46 3.973-1.407a4.022 4.022 0 0 0 .955-2.802c0-1.16-.522-2.03-1.552-2.342ZM140.133 13l-.907 4.661h-7.03l.909-4.66h-5.317l-.074.206c.784.297 1.539.776 1.327 1.886l-1.993 10.272h1.618a2.478 2.478 0 0 0 2.431-2.004l.567-2.91 7.029-.018-.959 4.932h3.657L143.792 13h-3.659Zm43.188 5.03a1.938 1.938 0 0 1-1.666.748h-4.629l.603-3.082h4.54c1.017 0 1.534.387 1.534 1.154.001.424-.132.837-.382 1.18Zm.327-5.029h-10.821c-.026.068-.052.14-.073.207.782.294 1.539.775 1.325 1.885l-1.982 10.272h1.612a2.478 2.478 0 0 0 2.432-2.011l.406-2.12h5.675c2.083 0 3.555-.543 4.504-1.653a5.215 5.215 0 0 0 1.103-3.473c0-2.12-1.327-3.107-4.181-3.107Zm-71.405 20.3 1.036-1.239h1.156l-1.701 1.963 1.125 2.165-1.129-.003-.73-1.465-1.224 1.465h-1.141l1.89-2.171-1.003-1.958 1.126.003.595 1.24Zm3.327 1.03c-.002.153.025.304.078.448a1.06 1.06 0 0 0 .566.594c.138.057.286.085.435.084a1.595 1.595 0 0 0 1.498-1.133c.039-.134.059-.273.058-.413a1.253 1.253 0 0 0-.08-.45 1.006 1.006 0 0 0-.565-.59 1.11 1.11 0 0 0-.438-.085c-.2 0-.397.04-.58.12-.184.078-.351.189-.495.327-.146.14-.264.307-.347.49-.087.191-.131.398-.129.608h-.001Zm-.966.085c-.001-.22.033-.437.101-.646.067-.207.163-.404.283-.586a2.83 2.83 0 0 1 1.603-1.136c.22-.06.447-.091.675-.09a2.01 2.01 0 0 1 .768.144c.225.091.429.226.602.395.171.168.305.369.395.59.095.232.143.48.142.731 0 .22-.036.438-.105.646a2.46 2.46 0 0 1-.283.587 2.667 2.667 0 0 1-.433.501 2.866 2.866 0 0 1-1.174.64 2.51 2.51 0 0 1-.672.09 1.973 1.973 0 0 1-.767-.145 1.784 1.784 0 0 1-.994-.989 1.895 1.895 0 0 1-.142-.732h.001Zm6.471-.29 1.957-2.065h1.114l-1.769 1.838 1.106 2.288h-1.133l-.72-1.58-.781.81-.137.77h-.961l.728-4.126h.96l-.364 2.066Zm4.521 0 1.957-2.065h1.115l-1.77 1.838 1.106 2.288h-1.133l-.72-1.58-.782.81-.136.77h-.961l.727-4.126h.961l-.364 2.066Zm3.924-2.065h2.901l-.145.829h-1.941l-.151.843h1.664l-.141.826h-1.669l-.141.803h1.972l-.146.825h-2.929l.726-4.126Zm7.102-1.39a1.295 1.295 0 0 1-.148.36 1.07 1.07 0 0 1-.599.472 1.361 1.361 0 0 1-.44.066 1.165 1.165 0 0 1-.417-.066.653.653 0 0 1-.43-.472 1.01 1.01 0 0 1-.026-.36l.643-.042a.906.906 0 0 0 .036.125.252.252 0 0 0 .152.15.511.511 0 0 0 .155.02.569.569 0 0 0 .159-.02.367.367 0 0 0 .203-.15c.026-.037.054-.079.081-.125l.632.043h-.001Zm-3.149 1.39h.953l-.435 2.466 2.4-2.466h.838l-.728 4.126h-.96l.436-2.472-2.403 2.472h-.829l.728-4.126Zm4.973 0h.959l-.297 1.672h1.796l.297-1.672h.964l-.727 4.126h-.964l.286-1.63h-1.797l-.285 1.63h-.959l.727-4.126Zm7.84 4.126h.96l.727-4.126h-.96l-.727 4.126Zm-1.542-2.036h-.777l-.217 1.211h.782c.088 0 .175-.02.255-.058a.77.77 0 0 0 .374-.38.654.654 0 0 0 .022-.468.5.5 0 0 0-.098-.16.47.47 0 0 0-.341-.145Zm.2-.825c.176-.002.351.028.516.09a1.08 1.08 0 0 1 .643.623c.059.155.089.32.086.485.002.227-.046.451-.139.657-.09.2-.219.38-.379.529-.341.309-.785.48-1.245.477h-1.779l.728-4.126h.961l-.225 1.265h.833Zm7.451-2.654a1.295 1.295 0 0 1-.148.359 1.056 1.056 0 0 1-.598.472 1.37 1.37 0 0 1-.44.066 1.162 1.162 0 0 1-.418-.066.674.674 0 0 1-.431-.472 1.033 1.033 0 0 1-.024-.36l.642-.042a.898.898 0 0 0 .036.125.257.257 0 0 0 .059.092.26.26 0 0 0 .093.058c.051.014.103.02.155.02a.564.564 0 0 0 .159-.02.352.352 0 0 0 .114-.058.437.437 0 0 0 .091-.092c.025-.037.053-.079.081-.125l.629.043Zm-3.149 1.389h.954l-.436 2.466 2.402-2.466h.835l-.727 4.126h-.959l.435-2.472-2.402 2.472h-.829l.727-4.126Zm7.281 2.066 1.956-2.066h1.114l-1.768 1.838 1.106 2.288h-1.134l-.72-1.58-.783.81-.135.77h-.96l.727-4.126h.96l-.363 2.066Zm5.171-1.237-.266 1.526-.015.088-.116.639a1.367 1.367 0 0 1-.199.527 1.34 1.34 0 0 1-.774.552 1.763 1.763 0 0 1-.664.05 1.334 1.334 0 0 1-.164-.03l.302-.798.036.002.056.007.096.006a.32.32 0 0 0 .235-.09.493.493 0 0 0 .125-.274l.122-.683.416-2.351h3.583l-.728 4.126h-.954l.581-3.297h-1.672ZM165.363 35.453l.032.002.056.006.059.003h.039a.48.48 0 0 0 .167-.028.259.259 0 0 0 .132-.11l.303-.45-.882-2.813h1.055l.523 1.8 1.164-1.8h1.053l-2.39 3.603c-.142.206-.336.37-.562.476-.212.1-.444.15-.678.149-.126 0-.252-.015-.375-.043l.305-.795h-.001ZM170.418 34.382l-.173.976h.675c.081 0 .16-.012.236-.037a.59.59 0 0 0 .339-.293.531.531 0 0 0 .02-.408.368.368 0 0 0-.101-.135.372.372 0 0 0-.143-.077.58.58 0 0 0-.176-.026h-.677Zm.857-.826c.182-.003.364.026.536.086.146.05.279.13.391.235a.972.972 0 0 1 .238.353c.054.14.082.288.08.437a1.396 1.396 0 0 1-.526 1.104 1.76 1.76 0 0 1-.758.367c-.144.033-.291.05-.439.049h-1.657l.726-4.126h2.802l-.145.826h-1.84l-.118.669h.71Z" fill="#fff"/><path d="M70.487 18.226c-.186-2.682-2.129-5.393-6.268-8.732v-.002c.195-.446.294-2.28-1.769-3.38C57.255 3.352 46.105.444 37.726 0c.082.226.278.856.417 1.326a200.352 200.352 0 0 0-27.703.777C7.916 2.353.07 3.44.07 3.44l17.727 7.613c-1.892.429-3.812.891-5.745 1.395-1.972.516-7.814 2.513-7.814 2.513l7.086 1.553c3.528.769 13.477 2.905 17.725 3.888-.562 1.743-4.22 13.82-4.22 13.82s4.737-5.031 6.208-6.436c1.869-1.788 2.488-2.394 3.048-2.857-.215 2.572-.692 8.091-.814 9.451-.098 1.087.113 2.214.74 2.873a3.197 3.197 0 0 0 2.56.826 5.1 5.1 0 0 0 2.359-1.17c2.854-2.368 10.003-8.77 16.049-14.66.34-.052.68-.1 1.02-.136 4.152-.46 8.17.203 8.857 2.287.449 1.368-.013 2.211-.432 3.522.712-.682 2.55-2.381 3.268-3.285 1.169-1.47 2.978-3.75 2.793-6.412" fill="#000"/><path d="m38.069 7.596.08-.009c-.244-.478-.45-.97-.636-1.33 3.4-.41 11.274 0 14.417 2.021 3.143 2.02 5.998 2.714 8.147 2.231-.235.466-.562.88-.962 1.215a6.64 6.64 0 0 1-2.439.075c-.889 1.476-3.074 1.294-6.522 3.042a110.363 110.363 0 0 0-13.912 8.382c-.14 1.717-.437 5.05-.477 5.57l6.835-2.497-1.38-1.18 5.835-1.346c.945-1.536 8.175-8.577 9.32-9.431.384-.087.772-.153 1.163-.198a25.003 25.003 0 0 1 4.988-3.546c.031-.097.056-.197.075-.298.103-.63.058-1.544-.763-1.978C47.931 1.006 22.21 3.368 8.358 4.498l13.063 5.77c6.252-1.288 12.033-2.16 16.648-2.672" fill="#BFBD9C"/><path d="m41.22 25.117 1.38 1.18-6.837 2.497s-.366 4.455-.462 5.503c-.13 1.424 1.072 1.863 2.212.92 2.54-2.109 8.45-7.277 13.96-12.465L41.22 25.117Z" fill="#6F7757"/><path d="M53.771 12.682c-2.594.416-3.844-1.421-4.073-3.36A36.727 36.727 0 0 0 47 9c-.043 2.432 1.593 5.082 5.533 4.484 1.461-.22 2.163-.72 2.484-1.236-.381.23-.806.378-1.247.434" fill="#FEFEFE"/><path d="M59.89 14.348a2.469 2.469 0 0 1 1.32-1.21c.891.366 1.682.94 2.308 1.672l-3.629-.462Zm2.637-3.752c-5.422 2.828-9.784 8.558-11.294 10.643 4.475-1.46 13.717-2.256 15.212 2.3 2.451-3.217 4.924-6.013-3.92-12.943h.002Z" fill="#F2F2D9"/><path d="m30.295 14.185 11.324-1.268-6.118 4.535.132-1.85-5.338-1.417Zm17.17-.116c-1.857-1.05-2.452-3.101-2.25-5.021h-.003c-2.968.228-18.93 1.498-33.362 5.358 4.66.817 19.794 4.37 19.794 4.37s-1.656 4.95-2.51 8.1c5.523-4.889 9.173-7.766 18.331-12.807Z" fill="red"/></svg>
